X: 8882
T: Cup Of Tea, The
R: reel
M: 4/4
K: Eminor
BAGF EDEF|GEBE GB[EB]c|BAGF EDEG|(3FED AD FA[DA]c|
BAGF EDEF|GEBE GB[EB]c|BAGF GB[Be]^c|1 dABG FDD=c:|2 dABG FDD^c||
K: Dmaj
d2(3efg fdec|dAFA BGEc|d2(3efg fdec|dABG FDDc|
df(3efg fdec|dAFA BGEa|afdf gece|dABG FDDc|
d2(3efg fdec|dAFA BGEc|d2(3efg fdec|dABG FDDc|
d2(3efg fdec|dAFA BGEa|afdf gece|dABG FDD=c|

